actions/16/zoom-original.svg

<svg xmlns="http://www.w3.org/2000/svg" style="fill-rule:evenodd;clip-rule:evenodd;stroke-linejoin:round;stroke-miterlimit:2" width="100%" height="100%" viewBox="0 0 16 16" xml:space="preserve">
 <defs>
  <style id="current-color-scheme" type="text/css">
   .ColorScheme-Text { color:#dfdfdf; } .ColorScheme-Highlight { color:#4285f4; } .ColorScheme-NeutralText { color:#ff9800; } .ColorScheme-PositiveText { color:#4caf50; } .ColorScheme-NegativeText { color:#f44336; }
  </style>
 </defs>
 <path style="fill:currentColor;" class="ColorScheme-Text" d="M14.983,3.39c0,-1.31 -1.063,-2.373 -2.373,-2.373l-9.22,0c-1.31,0 -2.373,1.063 -2.373,2.373l0,9.22c0,1.31 1.063,2.373 2.373,2.373l9.22,0c1.31,0 2.373,-1.063 2.373,-2.373l0,-9.22Zm-1,0c0,-0.758 -0.615,-1.373 -1.373,-1.373l-9.22,0c-0.758,0 -1.373,0.615 -1.373,1.373l0,9.22c0,0.758 0.615,1.373 1.373,1.373l9.22,0c0.758,0 1.373,-0.615 1.373,-1.373l0,-9.22Zm-6.983,1.61l2,0l0,6l-2,0l0,-4l-1,0l0,-1c0,0 1,0 1,-1Z"/>
</svg>

<svg xmlns="http://www.w3.org/2000/svg" style="fill-rule:evenodd;clip-rule:evenodd;stroke-linejoin:round;stroke-miterlimit:2" viewBox="0 0 16 16" xml:space="preserve">
    <defs>
        <style id="current-color-scheme" type="text/css">
            .ColorScheme-Highlight{color:#4285f4}.ColorScheme-NeutralText{color:#ff9800}.ColorScheme-PositiveText{color:#4caf50}.ColorScheme-NegativeText{color:#f44336}
        </style>
    </defs>
    <path style="fill:currentColor;color:#dfdfdf" d="M14.983 3.39a2.374 2.374 0 0 0-2.373-2.373H3.39A2.374 2.374 0 0 0 1.017 3.39v9.22a2.374 2.374 0 0 0 2.373 2.373h9.22a2.374 2.374 0 0 0 2.373-2.373V3.39Zm-1 0c0-.758-.615-1.373-1.373-1.373H3.39c-.758 0-1.373.615-1.373 1.373v9.22c0 .758.615 1.373 1.373 1.373h9.22c.758 0 1.373-.615 1.373-1.373V3.39ZM7 5h2v6H7V7H6V6s1 0 1-1Z"/>
</svg>
